src/32x32/places/folder-gruvbox-original-orange-publicshare-open.svg

<?xml version="1.0" encoding="UTF-8"?>
<svg width="32" height="32" version="1" xmlns="http://www.w3.org/2000/svg">
 <rect x="2" y="11" width="28" height="18" rx="1.4" ry="1.4" opacity=".2"/>
 <path d="m2 22.6c0 0.776 0.6244 1.4 1.4 1.4h25.2c0.776 0 1.4-0.624 1.4-1.4v-15.2c0-0.7756-0.624-1.4-1.4-1.4h-12.6c-2.1 0-2.8-3-4.9-3h-7.7c-0.7756 0-1.4 0.6244-1.4 1.4" fill="#af3a03"/>
 <rect x="2" y="12" width="28" height="15" rx="1.4" ry="1.4" opacity=".2"/>
 <rect x="4" y="8" width="24" height="11" rx="1.4" ry="1.4" fill="#F1D8AF"/>
 <rect x="2" y="13" width="28" height="15" rx="1.4" ry="1.4" fill="#fe8019"/>
 <path d="m3.4004 3c-0.7756 0-1.4004 0.6248-1.4004 1.4004v1c0-0.7756 0.6248-1.4004 1.4004-1.4004h7.6996c2.1 0 2.8 3 4.9 3h12.6c0.775 0 1.4 0.6248 1.4 1.4004v-1c0-0.7756-0.625-1.4004-1.4-1.4004h-12.6c-2.1 0-2.8-3-4.9-3z" fill="#F1D8AF" opacity=".1"/>
 <path d="m13.41 18.301c-0.034 7e-3 -0.069 0.02-0.101 0.035-0.323 0.151-0.407 0.623-0.186 1.06 0.178 0.352 0.493 0.57 0.779 0.563 0.216 1.169 1.074 2.041 2.098 2.041s1.882-0.872 2.098-2.041c0.286 7e-3 0.601-0.211 0.779-0.563 0.221-0.437 0.137-0.909-0.186-1.06-0.032-0.015-0.067-0.028-0.101-0.035-0.042-1.278-1.184-2.301-2.59-2.301s-2.548 1.023-2.59 2.301zm2.586 4.699c-0.583 0-1.109-0.29-1.496-0.752-1.631 0.241-3.375 0.59-3.484 0.988-2e-3 6e-3 1e-3 0.013 0 0.018-5e-3 0.02-6e-3 0.038-8e-3 0.058-1e-3 0.01-8e-3 0.016-8e-3 0.026v1.394c0 0.149 0.111 0.268 0.25 0.268h9.5c0.139 0 0.25-0.119 0.25-0.268v-1.404c-1e-3 -0.032-0.015-0.06-0.023-0.092-0.116-0.414-1.806-0.777-3.409-1.019-0.123 0.172-0.287 0.327-0.507 0.443l-2e-3 2e-3c-0.312 0.215-0.673 0.338-1.055 0.338" fill="#46352B"/>
</svg>

<svg xmlns="http://www.w3.org/2000/svg" width="32" height="32" version="1">
 <rect style="opacity:0.2" width="28" height="18" x="2" y="11" rx="1.4" ry="1.4"/>
 <path style="fill:#af3a03" d="M 2,22.6 C 2,23.376 2.6244,24 3.4,24 H 28.6 C 29.376,24 30,23.376 30,22.6 V 7.4 C 30,6.6244 29.376,6 28.6,6 H 16 C 13.9,6 13.2,3 11.1,3 H 3.4 C 2.6244,3 2,3.6244 2,4.4"/>
 <rect style="opacity:0.2" width="28" height="15" x="2" y="12" rx="1.4" ry="1.4"/>
 <rect style="fill:#F1D8AF" width="24" height="11" x="4" y="8" rx="1.4" ry="1.4"/>
 <rect style="fill:#fe8019" width="28" height="15" x="2" y="13" rx="1.4" ry="1.4"/>
 <path style="opacity:0.1;fill:#F1D8AF" d="M 3.4004,3 C 2.6248,3 2,3.6248 2,4.4004 V 5.4004 C 2,4.6248 2.6248,4 3.4004,4 H 11.1 C 13.2,4 13.9,7 16,7 H 28.6 C 29.375,7 30,7.6248 30,8.4004 V 7.4004 C 30,6.6248 29.375,6 28.6,6 H 16 C 13.9,6 13.2,3 11.1,3 Z"/>
 <path style="fill:#46352B" d="M 13.41,18.301 C 13.376,18.308 13.341,18.321 13.309,18.336 12.986,18.487 12.902,18.959 13.123,19.396 13.301,19.748 13.616,19.966 13.902,19.959 14.118,21.128 14.976,22 16,22 17.024,22 17.882,21.128 18.098,19.959 18.384,19.966 18.699,19.748 18.877,19.396 19.098,18.959 19.014,18.487 18.691,18.336 18.659,18.321 18.624,18.308 18.59,18.301 18.548,17.023 17.406,16 16,16 14.594,16 13.452,17.023 13.41,18.301 Z M 15.996,23 C 15.413,23 14.887,22.71 14.5,22.248 12.869,22.489 11.125,22.838 11.016,23.236 11.014,23.242 11.017,23.249 11.016,23.254 11.011,23.274 11.01,23.292 11.008,23.312 11.007,23.322 11,23.328 11,23.338 V 24.732 C 11,24.881 11.111,25 11.25,25 H 20.75 C 20.889,25 21,24.881 21,24.732 V 23.328 C 20.999,23.296 20.985,23.268 20.977,23.236 20.861,22.822 19.171,22.459 17.568,22.217 17.445,22.389 17.281,22.544 17.061,22.66 L 17.059,22.662 C 16.747,22.877 16.386,23 16.004,23"/>
</svg>
